X: 2649
T: Banish Misfortune
R: jig
M: 6/8
K: Dmixolydian
|de|:"D"fed "C"cAG|"D"Add "C"cAG|"D"F2D DED|FEF "C"GFG|
"D"AGA "C"cAG|"D"AGA "C"cde|"D"fed "C"cAG|"D"Ad^c d2e:|
|:"D"f2d d^cd|f2g agf|"C"e2c cBc|e2f gfe|
"D"f2g agf|"C"e2f gfe|"D"fed "C"cAG|"D"Ad^c d2e:|
|:"D"f2g "C"e2f|"D"d2e "C"c2d|"D"ABA "C"GAG|"D"F2F GED|
"C"c3 cAG|AGA cde|"D"fed cAG|1 "C"Ad^c "D"d2e:|2 "C"Ad^c "D"d3||

